X:1
T:Title
%%score 1 { 2 | 3 }
L:1/8
Q:1/4=110
M:4/4
K:Eb
V:1 treble nm="Grand Piano, Unnamed-000"
V:2 bass nm="Choir Pad, Constance, 87.87 D"
V:3 bass 
V:1
 [EG]2 [EG]2- [EG][EG] [DA]2 | [DF]2 [EB]2- [EB][Ec] [EB]2 | [EA]2 [EG]2 [EG]2 [DA]2- | %3
w: By~Arthur~Seymour~Sullivan,~1875 * * * *|||
 [DA][DF] [DF]2 E4 | [EG]2 [GB]2- [GB][FA] [FA]2 | [EG]2 [DG]2- [DG][DF] [CE]2 | %6
w: |||
 [CE]2 [B,D]2 [DG]2 [GB]2- | [GB][_G=A] [GA]2 =G4 | G2 [=EG]2 [DF][EG] [FA]2 | %9
w: |||
 [FA]2 [=EG]2 [DF][EG] [FA]2 | [GB]2 [Ac]2- [Ac][GB] [FA]2 | [EG]2 [EG]2 [DF]4 | %12
w: |||
 [DB]2 [EB]2 [DB]2 [Ee]2- | [Ee][EG] [DG]2 [CG]2 [B,B]2- | [B,B][CE] [B,E]2 [B,E]2 [EG]2- | %15
w: |||
 [EG][DF] [DF]2 E4- | E4 z4 |] %17
w: ||
V:2
 B,2 B,2- B,B, B,2 | B,2 B,2- B,A, B,2 | C2 B,2 B,2 F,2- | F,A, A,2 G,4 | B,2 B,2- B,/ z/ B, B,2 | %5
 B,2 =B,2- B,/ z/ B, C2 | G,2 G,2 B,2[K:treble] D2- | DC C2 B,4 | G,2 B,2 B,2 A,2 | %9
 C2[K:treble] C2 C2 C2 | _D2 C2- CC C2 | C2[K:bass] B,2 B,4 | B,2 B,2 A,2 G,2- | %13
 G,E, E,2 E,2 E,2- | E,A, G,2 G,2 B,2- | B,A, A,2 G,4- | G,4 z4 |] %17
V:3
 E,2 E,2- E,E, F,2 | A,2 G,4 G,2 | A,2 z2 B,,2 B,,2- | B,,B,, B,,2 E,4 | E,2 D,2- D,/ z/ D, E,2 | %5
 E,F, G,2- G,/ z/ G, C,2 | C,2 D,2 D,2 D,2- | D,D, D,2 G,,4 | z2 C,2 C,2 F,2 | A,,B,, C,2 C,2 F,2 | %10
 E,2 A,2- A,A,, A,,2 | =A,,2 B,,2 B,,4 | A,2 G,2 F,2 E,2- | E,C, B,,2 A,,2 G,,2- | %14
 G,,A,, B,,2 B,,2 B,,2- | B,,B,, B,,2 E,4- | E,4 z4 |] %17

